X:1
T:Nincs Szentesen olyan asszony
C:Hungarian folk song
Z:Public Domain
L:1/8
M:2/4
K:C
V:1 treble nm="Voice"
%%MIDI program 52
V:1
 Ad dd | de fd | ec cc | cd ed | cB A2 | Ad A2 | dG GG | GA BG | AF FF | FG AG | FE D2 | DE D2 |] %12
w: Nincs Szen- te- sen|o- lyan asz- szony,|mint Tú- ri- né|kom- ám- asz- szony,|így tedd rá,|úgy tedd rá!|Tep- si- ben sü-|ti a le- pényt,|az- zal kí- nál-|ja a le- gényt,|így tedd rá,|úgy tedd rá!|

